images/social/ello.svg

<svg xmlns="http://www.w3.org/2000/svg" width="300" height="299.52" viewBox="0 0 300 299.52"><defs><style>.a{fill:#fff;}</style></defs><title>ello</title><path class="a" d="M143.52,0h14.62c22.2,1.56,44.22,7.34,63.78,18.09a150.84,150.84,0,0,1,68.47,77.56A153.9,153.9,0,0,1,300,136.46v26.95A150.45,150.45,0,0,1,26.82,235.14,149.1,149.1,0,0,1,0,152.72v-5.45A149.56,149.56,0,0,1,76.34,19.33C96.8,7.66,120.05,1.32,143.52,0M227,160.07a8.43,8.43,0,0,0-6.23,6c-3.86,14.14-11.47,27.42-22.51,37.16a74.41,74.41,0,0,1-50.32,18.52,71,71,0,0,1-44.75-16C91.55,196.19,83.64,182.52,80,168a8.67,8.67,0,0,0-7-7c-5.65-1.28-11.31,4.58-9.71,10.21,4.34,18.09,14.1,35,28.38,47.07A88.14,88.14,0,0,0,147,238.71a92,92,0,0,0,57.3-18.48c16.37-12.33,27.86-30.57,33-50.33C238.75,164.14,232.65,158.43,227,160.07Z"/></svg>

<?xml version="1.0" encoding="UTF-8" ?>
<!DOCTYPE svg PUBLIC "-//W3C//DTD SVG 1.1//EN" "http://www.w3.org/Graphics/SVG/1.1/DTD/svg11.dtd">
<svg width="300pt" height="300pt" viewBox="0 0 300 300" version="1.1" xmlns="http://www.w3.org/2000/svg">
<g>
<path fill="#fff" opacity="1.00" d=" M 143.52 0.00 L 158.14 0.00 C 180.34 1.56 202.36 7.34 221.92 18.09 C 252.92 34.82 277.68 62.78 290.39 95.65 C 295.54 108.70 298.57 122.52 300.00 136.46 L 300.00 163.41 C 297.43 189.16 288.45 214.31 273.45 235.45 C 255.40 261.28 229.03 281.20 199.20 291.37 C 169.66 301.57 136.96 302.22 107.04 293.20 C 74.75 283.67 46.03 262.77 26.82 235.14 C 9.94 211.14 0.56 182.04 0.00 152.72 L 0.00 147.27 C 0.34 129.27 3.82 111.32 10.52 94.60 C 23.03 62.98 46.71 35.98 76.34 19.33 C 96.80 7.66 120.05 1.32 143.52 0.00 M 227.01 160.07 C 224.04 160.78 221.50 163.12 220.78 166.12 C 216.92 180.26 209.31 193.54 198.27 203.28 C 184.61 215.49 166.23 222.09 147.95 221.80 C 131.81 221.71 115.63 216.15 103.20 205.79 C 91.55 196.19 83.64 182.52 79.96 167.97 C 79.34 164.49 76.51 161.51 72.98 160.96 C 67.33 159.68 61.67 165.54 63.27 171.17 C 67.61 189.26 77.37 206.20 91.65 218.24 C 106.97 231.27 126.99 238.41 147.04 238.71 C 167.48 239.15 188.06 232.64 204.34 220.23 C 220.71 207.90 232.20 189.66 237.32 169.90 C 238.75 164.14 232.65 158.43 227.01 160.07 Z" />
</g>
</svg>
